src/assets/svg/avatar.svg

<svg width="88" height="88" viewBox="0 0 88 88" fill="none" xmlns="http://www.w3.org/2000/svg">
<g clip-path="url(#clip0_2550_78932)">
<circle cx="44" cy="44" r="43" fill="#4F4F4F" stroke="url(#paint0_linear_2550_78932)" stroke-width="2"/>
<path d="M44.0002 43.9997C41.1585 43.9997 38.7259 42.9879 36.7022 40.9643C34.6786 38.9406 33.6668 36.508 33.6668 33.6663C33.6668 30.8247 34.6786 28.392 36.7022 26.3684C38.7259 24.3448 41.1585 23.333 44.0002 23.333C46.8418 23.333 49.2745 24.3448 51.2981 26.3684C53.3217 28.392 54.3335 30.8247 54.3335 33.6663C54.3335 36.508 53.3217 38.9406 51.2981 40.9643C49.2745 42.9879 46.8418 43.9997 44.0002 43.9997ZM23.3335 64.6663V57.433C23.3335 55.9691 23.7102 54.6236 24.4637 53.3965C25.2172 52.1695 26.2182 51.233 27.4668 50.5872C30.1363 49.2525 32.8488 48.2514 35.6043 47.584C38.3599 46.9167 41.1585 46.583 44.0002 46.583C46.8418 46.583 49.6404 46.9167 52.396 47.584C55.1516 48.2514 57.864 49.2525 60.5335 50.5872C61.7821 51.233 62.7831 52.1695 63.5366 53.3965C64.2901 54.6236 64.6668 55.9691 64.6668 57.433V64.6663H23.3335ZM28.5002 62.001H59.5002V57.433C59.5002 56.9594 59.3818 56.5288 59.145 56.1413C58.9081 55.7538 58.596 55.4524 58.2085 55.2372C55.8835 54.0747 53.537 53.2028 51.1689 52.6215C48.8009 52.0403 46.4113 51.7497 44.0002 51.7497C41.5891 51.7497 39.1995 52.0403 36.8314 52.6215C34.4634 53.2028 32.1168 54.0747 29.7918 55.2372C29.4043 55.4524 29.0922 55.7538 28.8554 56.1413C28.6186 56.5288 28.5002 56.9594 28.5002 57.433V62.001ZM44.0002 38.833C45.421 38.833 46.6373 38.3271 47.6491 37.3153C48.6609 36.3035 49.1668 35.0872 49.1668 33.6663C49.1668 32.2455 48.6609 31.0292 47.6491 30.0174C46.6373 29.0056 45.421 28.4997 44.0002 28.4997C42.5793 28.4997 41.363 29.0056 40.3512 30.0174C39.3394 31.0292 38.8335 32.2455 38.8335 33.6663C38.8335 35.0872 39.3394 36.3035 40.3512 37.3153C41.363 38.3271 42.5793 38.833 44.0002 38.833Z" fill="white" fill-opacity="0.9"/>
</g>
<defs>
<linearGradient id="paint0_linear_2550_78932" x1="9.58911e-06" y1="4.80668" x2="90.7524" y2="20.8761" gradientUnits="userSpaceOnUse">
<stop stop-color="white"/>
<stop offset="0.536458" stop-color="white" stop-opacity="0.1"/>
<stop offset="1" stop-color="white"/>
</linearGradient>
<clipPath id="clip0_2550_78932">
<rect width="88" height="88" fill="white"/>
</clipPath>
</defs>
</svg>

<svg width="88" height="88" fill="none" xmlns="http://www.w3.org/2000/svg"><g clip-path="url(#prefix__a)"><circle cx="44" cy="44" r="43" fill="#4F4F4F" stroke="url(#prefix__b)" stroke-width="2"/><path d="M44 44q-4.263 0-7.298-3.036t-3.035-7.298 3.035-7.298T44 23.333t7.298 3.035 3.035 7.298-3.035 7.298T44 44M23.334 64.666v-7.233q0-2.196 1.13-4.036a7.53 7.53 0 0 1 3.003-2.81q4.005-2.003 8.137-3.003A35.6 35.6 0 0 1 44 46.583q4.263 0 8.396 1.001t8.137 3.003a7.53 7.53 0 0 1 3.004 2.81 7.57 7.57 0 0 1 1.13 4.036v7.233zm5.166-2.665h31v-4.568q0-.71-.355-1.292a2.5 2.5 0 0 0-.937-.904q-3.487-1.743-7.04-2.616A30 30 0 0 0 44 51.75q-3.615 0-7.169.871-3.552.873-7.04 2.616-.58.323-.936.904a2.43 2.43 0 0 0-.355 1.292zM44 38.833q2.131 0 3.65-1.518 1.516-1.517 1.517-3.649 0-2.13-1.518-3.649Q46.131 28.5 44 28.5q-2.13 0-3.649 1.517-1.518 1.518-1.517 3.65 0 2.13 1.517 3.648t3.65 1.518" fill="#fff" fill-opacity=".9"/></g><defs><linearGradient id="prefix__b" x1="0" y1="4.807" x2="90.752" y2="20.876" gradientUnits="userSpaceOnUse"><stop stop-color="#fff"/><stop offset=".536" stop-color="#fff" stop-opacity=".1"/><stop offset="1" stop-color="#fff"/></linearGradient><clipPath id="prefix__a"><path fill="#fff" d="M0 0h88v88H0z"/></clipPath></defs></svg>
